X:1
T:Ostrava, LMD
T:Ostrava, LMD
T:Ira David Sankey, 1902
T:Public Domain Courtesy of the Cyber Hymnal™
C:Ira David Sankey, 1902
Z:Public Domain
Z:Courtesy of the Cyber Hymnal™
%%score 1 ( 2 3 )
L:1/8
Q:1/4=97
M:4/4
K:G
V:1 treble 
V:2 bass 
V:3 bass 
V:1
 [B,D]2 | [DB]3 [CA] [Ec][DB] [DB]>[CA] | [B,G]6 [DG]2 | [DA]3 [DG] [DF][DG] [DA]>[Dc] | %4
 [DB]6 [B,D]2 | [DB]3 [CA] [Ec][DB] [DB]>[CA] | [B,G]6 [CE]2 | [B,D]3 [B,E] [CG][CF] [DB]>[CA] | %8
 [B,G]6 [DG]2 | [DA]3 [DG] [DF][DG] [DA]>[Dc] | [DB]6 [DB]2 | [^DB]3 [FA] [EG][=DA] [DB]>[G^c] | %12
 [Fd]6 [Dc]2 | [DB]3 [=Fd] [Ec][DB][CA][B,B] | [B,G]6 [^A,E]2 | [B,D]3 [B,E] [CF][B,G] [DB]>[CA] | %16
 [B,G]6 |] %17
V:2
 [G,,G,]2 | [G,,G,]3 [G,,G,] [G,,G,][G,,G,] [D,F,]>[D,F,] | [G,,G,]6 [B,,G,]2 | %3
 [D,F,]3 [D,B,] [D,A,][D,B,] [D,F,]>[D,A,] | [G,,G,]6 [G,,G,]2 | %5
 [G,,G,]3 [G,,G,] [G,,G,][G,,G,] [D,F,]>[D,F,] | [E,G,]6 [C,G,]2 | %7
 [D,G,]3 [D,G,] [D,A,][D,A,] [D,F,]>[D,F,] | [G,,G,]6 [B,,G,]2 | %9
 [D,F,]3 [D,B,] [D,A,][D,B,] [D,F,]>[D,A,] | [G,,G,]6 [G,,G,]2 | %11
 [B,,F,]3 [B,,B,] [E,B,][F,A,] G,>[E,A,] | [D,A,]6 [F,A,]2 | G,3 [G,B,] G,[G,,G,][D,F,][^D,F,] | %14
 [E,G,]6 [^C,G,]2 | [D,G,]3 [D,G,] [D,A,][D,G,] [D,F,]>[D,F,] | [G,,G,]6 |] %17
V:3
 x2 | x8 | x8 | x8 | x8 | x8 | x8 | x8 | x8 | x8 | x8 | x6 G,3/2 x/ | x8 | G,3 G, x4 | x8 | x8 | %16
 x6 |] %17

